src/22/panel/qtox-invisible.svg

<svg xmlns="http://www.w3.org/2000/svg" width="22" height="22" version="1.1">
 <defs>
  <style id="current-color-scheme" type="text/css">
   .ColorScheme-Text { color:#dfdfdf; } .ColorScheme-Highlight { color:#5294e2; }
  </style>
 </defs>
 <g>
  <path style="fill:currentColor" class="ColorScheme-Text" d="m 11,10 c 2.209116,5.5e-5 3.999945,1.790884 4,4 -5.5e-5,2.209116 -1.790884,3.999945 -4,4 -2.2091161,-5.5e-5 -3.9999448,-1.790884 -4,-4 5.52e-5,-2.209116 1.7908839,-3.999945 4,-4 z m 0,-5 c 1.1052,0 2,0.8955 2,2 0,0.4715 -0.102,0.8423 -0.236,1.1074 C 12.631,8.3725 12.338,8.7271 12,9 11.67,9.2671 11,9.6 11,9.6 11,9.6 11.303,9.2357 11.428,8.95 11.287,8.9813 11.145,9 11,9 9.8956,9.001 9,8.1045 9,7 9,5.8955 9.8948,5 11,5 Z M 11,3 C 8.7911,3 7,4.7911 7,7 L 7,9 5,9 C 4.4476649,8.9998784 3.9998784,9.4476649 4,10 l 0,8 c -1.216e-4,0.552335 0.4476649,1.000122 1,1 l 12,0 c 0.552335,1.22e-4 1.000122,-0.447665 1,-1 l 0,-8 C 18.000122,9.4476649 17.552335,8.9998784 17,9 L 15,9 15,7 C 15,4.7911 13.209,3 11,3 Z m 1,8.174522 0,5.650478 A 3.0003494,3.0003494 0 0 0 13.999581,13.998783 3.0003494,3.0003494 0 0 0 12,11.174522 Z m -2.0004193,-10e-7 A 3.0003494,3.0003494 0 0 0 8,14.000739 3.0003494,3.0003494 0 0 0 9.9995807,16.825 l 0,-5.650479 z"/>
 </g>
</svg>

<svg xmlns="http://www.w3.org/2000/svg" width="22" height="22"><defs><style id="current-color-scheme" type="text/css"></style></defs><path d="M11 10a4 4 0 1 1 0 8 4 4 0 0 1 0-8zm0-5a2 2 0 0 1 2 2c0 .471-.102.842-.236 1.107-.133.266-.426.62-.764.893-.33.267-1 .6-1 .6s.303-.364.428-.65c-.141.031-.283.05-.428.05a2 2 0 1 1 0-4zm0-2a4 4 0 0 0-4 4v2H5a1 1 0 0 0-1 1v8a1 1 0 0 0 1 1h12a1 1 0 0 0 1-1v-8a1 1 0 0 0-1-1h-2V7a4 4 0 0 0-4-4zm1 8.175v5.65a3 3 0 0 0 2-2.826 3 3 0 0 0-2-2.824zm-2 0A3 3 0 0 0 8 14a3 3 0 0 0 2 2.824v-5.65z" fill="currentColor" color="#dfdfdf"/></svg>
